assets/img/promo/main/fridge.svg

<svg width="276" height="565" viewBox="0 0 276 565" fill="none" xmlns="http://www.w3.org/2000/svg">
<path d="M113.915 0.851074L273.195 91.0089L173.265 146.41L13.9846 56.2517L113.915 0.851074Z" fill="white" stroke="#26144D" stroke-width="1.5" stroke-linecap="round" stroke-linejoin="round"/>
<path fill-rule="evenodd" clip-rule="evenodd" d="M173.266 146.41V557.804L173.665 557.576V355.367L173.61 355.335L173.665 355.303V355.28L173.685 355.292L274.499 297.082L273.196 91.0093L173.266 146.41Z" fill="#D8D8D8"/>
<path d="M173.266 557.804H172.516C172.516 558.071 172.658 558.318 172.889 558.452C173.12 558.587 173.405 558.588 173.637 558.456L173.266 557.804ZM173.266 146.41L172.902 145.754C172.664 145.886 172.516 146.137 172.516 146.41H173.266ZM173.665 557.576L174.036 558.228C174.27 558.095 174.415 557.846 174.415 557.576H173.665ZM173.665 355.367H174.415C174.415 355.099 174.272 354.851 174.04 354.717L173.665 355.367ZM173.61 355.335L173.235 354.686C173.003 354.82 172.86 355.067 172.86 355.335C172.86 355.603 173.003 355.851 173.236 355.985L173.61 355.335ZM173.665 355.303L174.04 355.953C174.272 355.819 174.415 355.571 174.415 355.303H173.665ZM173.665 355.28L174.04 354.631C173.808 354.497 173.522 354.497 173.29 354.631C173.058 354.765 172.915 355.012 172.915 355.28H173.665ZM173.685 355.292L173.31 355.941C173.542 356.075 173.828 356.075 174.06 355.941L173.685 355.292ZM274.499 297.082L274.874 297.732C275.108 297.597 275.251 297.347 275.249 297.078L274.499 297.082ZM273.196 91.0093L273.946 91.0045C273.944 90.7398 273.803 90.4955 273.574 90.3618C273.346 90.2282 273.064 90.225 272.832 90.3533L273.196 91.0093ZM174.016 557.804V146.41H172.516V557.804H174.016ZM173.294 556.925L172.894 557.152L173.637 558.456L174.036 558.228L173.294 556.925ZM172.915 355.367V557.576H174.415V355.367H172.915ZM173.236 355.985L173.29 356.016L174.04 354.717L173.985 354.685L173.236 355.985ZM173.29 354.654L173.235 354.686L173.985 355.984L174.04 355.953L173.29 354.654ZM172.915 355.28V355.303H174.415V355.28H172.915ZM174.06 354.642L174.04 354.631L173.29 355.93L173.31 355.941L174.06 354.642ZM274.124 296.433L173.31 354.642L174.06 355.941L274.874 297.732L274.124 296.433ZM272.446 91.014L273.749 297.087L275.249 297.078L273.946 91.0045L272.446 91.014ZM173.629 147.066L273.559 91.6652L272.832 90.3533L172.902 145.754L173.629 147.066Z" fill="#26144D"/>
<path d="M165.116 151.411L22.1327 70.4932V437.09L165.116 520.7V151.411Z" fill="#248CFF" stroke="#26144D" stroke-width="1.5" stroke-linecap="round" stroke-linejoin="round"/>
<path d="M14.0573 316.049L173.338 406.207L162.806 413.155L3.52588 322.997L14.0573 316.049Z" fill="white" stroke="#26144D" stroke-width="1.5" stroke-linecap="round" stroke-linejoin="round"/>
<path d="M173.375 557.258L162.807 564.152V413.155L173.338 406.207L173.375 557.258Z" fill="white" stroke="#26144D" stroke-width="1.5" stroke-linecap="round" stroke-linejoin="round"/>
<path fill-rule="evenodd" clip-rule="evenodd" d="M162.806 564.006V413.154L3.52588 322.997V463.887C11.3289 467.155 18.8057 470.804 25.8797 474.834L43.1626 464.809L106.733 501.694V511.188L102.88 513.424V530.277L162.806 564.006ZM95.2215 517.867L95.2222 517.867V525.967L95.2215 525.966V517.867Z" fill="#E9E9E9"/>
<path d="M162.806 413.154H163.556C163.556 412.884 163.411 412.635 163.176 412.502L162.806 413.154ZM162.806 564.006L162.439 564.659C162.671 564.79 162.955 564.788 163.185 564.653C163.415 564.519 163.556 564.272 163.556 564.006H162.806ZM3.52588 322.997L3.89532 322.344C3.66313 322.212 3.3786 322.214 3.14811 322.349C2.91762 322.483 2.77588 322.73 2.77588 322.997H3.52588ZM3.52588 463.887H2.77588C2.77588 464.19 2.95735 464.462 3.23617 464.579L3.52588 463.887ZM25.8797 474.834L25.5084 475.485C25.7404 475.618 26.0251 475.616 26.256 475.482L25.8797 474.834ZM43.1626 464.809L43.539 464.16C43.3062 464.025 43.019 464.025 42.7862 464.16L43.1626 464.809ZM106.733 501.694H107.483C107.483 501.426 107.34 501.179 107.109 501.045L106.733 501.694ZM106.733 511.188L107.109 511.837C107.34 511.702 107.483 511.455 107.483 511.188H106.733ZM102.88 513.424L102.503 512.775C102.272 512.909 102.13 513.156 102.13 513.424H102.88ZM102.88 530.277H102.13C102.13 530.548 102.276 530.798 102.512 530.93L102.88 530.277ZM95.2222 517.867H95.9722C95.9722 517.6 95.8302 517.353 95.5995 517.219C95.3687 517.084 95.084 517.083 94.8518 517.215L95.2222 517.867ZM95.2215 517.867L94.8512 517.215C94.6165 517.348 94.4715 517.597 94.4715 517.867H95.2215ZM95.2222 525.967L94.8518 526.619C95.084 526.751 95.3687 526.749 95.5995 526.615C95.8302 526.481 95.9722 526.234 95.9722 525.967H95.2222ZM95.2215 525.966H94.4715C94.4715 526.236 94.6165 526.485 94.8512 526.619L95.2215 525.966ZM162.056 413.154V564.006H163.556V413.154H162.056ZM3.15643 323.649L162.437 413.807L163.176 412.502L3.89532 322.344L3.15643 323.649ZM4.27588 463.887V322.997H2.77588V463.887H4.27588ZM3.23617 464.579C11.0133 467.836 18.4626 471.472 25.5084 475.485L26.2509 474.182C19.1487 470.136 11.6445 466.474 3.81559 463.196L3.23617 464.579ZM42.7862 464.16L25.5033 474.185L26.256 475.482L43.5389 465.457L42.7862 464.16ZM107.109 501.045L43.539 464.16L42.7862 465.457L106.356 502.343L107.109 501.045ZM107.483 511.188V501.694H105.983V511.188H107.483ZM103.256 514.072L107.109 511.837L106.356 510.539L102.503 512.775L103.256 514.072ZM103.63 530.277V513.424H102.13V530.277H103.63ZM163.174 563.352L103.248 529.623L102.512 530.93L162.439 564.659L163.174 563.352ZM94.8518 517.215L94.8512 517.215L95.5919 518.519L95.5925 518.519L94.8518 517.215ZM95.9722 525.967V517.867H94.4722V525.967H95.9722ZM94.8512 526.619L94.8518 526.619L95.5925 525.315L95.5919 525.314L94.8512 526.619ZM94.4715 517.867V525.966H95.9715V517.867H94.4715Z" fill="#26144D"/>
<path d="M13.913 59.9253L152.949 150.047L141.781 155.103L1.45361 64.9452L13.913 59.9253Z" fill="white" stroke="#26144D" stroke-width="1.5" stroke-linecap="round" stroke-linejoin="round"/>
<path d="M152.985 403.533L141.781 409.644V155.121L152.949 150.047L152.985 403.533Z" fill="#D8D8D8" stroke="#26144D" stroke-width="1.5" stroke-linecap="round" stroke-linejoin="round"/>
<path d="M141.781 155.121V409.153L1.43506 319.013V64.9453L141.781 155.121Z" fill="#E9E9E9" stroke="#26144D" stroke-width="1.5" stroke-linecap="round" stroke-linejoin="round"/>
<path d="M9.54883 308.1V86.7524" stroke="white" stroke-width="1.5" stroke-linecap="round" stroke-linejoin="round"/>
<path d="M10.0583 337.401V458.187" stroke="white" stroke-width="1.5" stroke-linecap="round" stroke-linejoin="round"/>
<path d="M123.758 237.349V365.701" stroke="#26144D" stroke-width="1.5" stroke-linecap="round" stroke-linejoin="round"/>
</svg>

<svg width="276" height="565" fill="none" xmlns="http://www.w3.org/2000/svg"><path d="M113.915.851l159.28 90.158-99.93 55.401-159.28-90.158 99.93-55.4z" fill="#fff" stroke="#26144D" stroke-width="1.5" stroke-linecap="round" stroke-linejoin="round"/><path fill-rule="evenodd" clip-rule="evenodd" d="M173.266 146.41v411.394l.399-.228V355.367l-.055-.032.055-.032v-.023l.02.012 100.814-58.21-1.303-206.073-99.93 55.401z" fill="#D8D8D8"/><path d="M173.266 557.804h-.75a.75.75 0 001.121.652l-.371-.652zm0-411.394l-.364-.656a.75.75 0 00-.386.656h.75zm.399 411.166l.371.652a.75.75 0 00.379-.652h-.75zm0-202.209h.75a.75.75 0 00-.375-.65l-.375.65zm-.055-.032l-.375-.649a.75.75 0 00.001 1.299l.374-.65zm.055-.032l.375.65a.75.75 0 00.375-.65h-.75zm0-.023l.375-.649a.75.75 0 00-1.125.649h.75zm.02.012l-.375.649a.75.75 0 00.75 0l-.375-.649zm100.814-58.21l.375.65a.749.749 0 00.375-.654l-.75.004zm-1.303-206.073l.75-.005a.75.75 0 00-1.114-.65l.364.655zm-99.18 466.795V146.41h-1.5v411.394h1.5zm-.722-.879l-.4.227.743 1.304.399-.228-.742-1.303zm-.379-201.558v202.209h1.5V355.367h-1.5zm.321.618l.054.031.75-1.299-.055-.032-.749 1.3zm.054-1.331l-.055.032.75 1.298.055-.031-.75-1.299zm-.375.626v.023h1.5v-.023h-1.5zm1.145-.638l-.02-.011-.75 1.299.02.011.75-1.299zm100.064-58.209L173.31 354.642l.75 1.299 100.814-58.209-.75-1.299zm-1.678-205.419l1.303 206.073 1.5-.009-1.303-206.073-1.5.009zm-98.817 56.052l99.93-55.4-.727-1.313-99.93 55.401.727 1.312z" fill="#26144D"/><path d="M165.116 151.411L22.133 70.493V437.09l142.983 83.61V151.411z" fill="#248CFF" stroke="#26144D" stroke-width="1.5" stroke-linecap="round" stroke-linejoin="round"/><path d="M14.057 316.049l159.281 90.158-10.532 6.948-159.28-90.158 10.531-6.948zm159.318 241.209l-10.568 6.894V413.155l10.531-6.948.037 151.051z" fill="#fff" stroke="#26144D" stroke-width="1.5" stroke-linecap="round" stroke-linejoin="round"/><path fill-rule="evenodd" clip-rule="evenodd" d="M162.806 564.006V413.154L3.526 322.997v140.89c7.803 3.268 15.28 6.917 22.354 10.947l17.283-10.025 63.57 36.885v9.494l-3.853 2.236v16.853l59.926 33.729zm-67.585-46.139h.001v8.1-8.1z" fill="#E9E9E9"/><path d="M162.806 413.154h.75a.749.749 0 00-.38-.652l-.37.652zm0 150.852l-.367.653a.747.747 0 001.117-.653h-.75zM3.526 322.997l.37-.653a.75.75 0 00-1.12.653h.75zm0 140.89h-.75a.75.75 0 00.46.692l.29-.692zm22.354 10.947l-.372.651a.748.748 0 00.748-.003l-.376-.648zm17.283-10.025l.376-.649a.75.75 0 00-.753 0l.377.649zm63.57 36.885h.75a.75.75 0 00-.374-.649l-.376.649zm0 9.494l.376.649a.753.753 0 00.374-.649h-.75zm-3.853 2.236l-.377-.649a.75.75 0 00-.373.649h.75zm0 16.853h-.75c0 .271.146.521.382.653l.368-.653zm-7.658-12.41h.75a.75.75 0 00-1.12-.652l.37.652zm0 0l-.37-.652a.75.75 0 00-.38.652h.75zm0 8.1l-.37.652a.75.75 0 001.12-.652h-.75zm0-.001h-.75c0 .27.145.519.38.653l.37-.653zm66.834-112.812v150.852h1.5V413.154h-1.5zm-158.9-89.505l159.281 90.158.739-1.305-159.28-90.158-.74 1.305zm1.12 140.238v-140.89h-1.5v140.89h1.5zm-1.04.692c7.777 3.257 15.227 6.893 22.272 10.906l.743-1.303c-7.102-4.046-14.607-7.708-22.435-10.986l-.58 1.383zm39.55-.419l-17.283 10.025.753 1.297 17.283-10.025-.753-1.297zm64.323 36.885l-63.57-36.885-.753 1.297 63.57 36.886.753-1.298zm.374 10.143v-9.494h-1.5v9.494h1.5zm-4.227 2.884l3.853-2.235-.753-1.298-3.853 2.236.753 1.297zm.374 16.205v-16.853h-1.5v16.853h1.5zm59.544 33.075l-59.926-33.729-.736 1.307 59.927 33.729.735-1.307zm-68.322-46.137l.74 1.304-.74-1.304zm1.12 8.752v-8.1h-1.5v8.1h1.5zm-1.12.652l.74-1.304v-.001l-.74 1.305zm-.38-8.752v8.099h1.5v-8.099h-1.5z" fill="#26144D"/><path d="M13.913 59.925l139.036 90.122-11.168 5.056L1.454 64.945l12.459-5.02z" fill="#fff" stroke="#26144D" stroke-width="1.5" stroke-linecap="round" stroke-linejoin="round"/><path d="M152.985 403.533l-11.204 6.111V155.121l11.168-5.074.036 253.486z" fill="#D8D8D8" stroke="#26144D" stroke-width="1.5" stroke-linecap="round" stroke-linejoin="round"/><path d="M141.781 155.121v254.032L1.435 319.013V64.945l140.346 90.176z" fill="#E9E9E9" stroke="#26144D" stroke-width="1.5" stroke-linecap="round" stroke-linejoin="round"/><path d="M9.549 308.1V86.752m.509 250.649v120.786" stroke="#fff" stroke-width="1.5" stroke-linecap="round" stroke-linejoin="round"/><path d="M123.758 237.349v128.352" stroke="#26144D" stroke-width="1.5" stroke-linecap="round" stroke-linejoin="round"/></svg>
